; generated by Slic3r 1.2.6 on 2015-03-11 at 22:46:19

; external perimeters extrusion width = 0.50mm
; perimeters extrusion width = 0.72mm
; infill extrusion width = 0.72mm
; solid infill extrusion width = 0.72mm
; top infill extrusion width = 0.72mm

M107
M104 S200 ; set temperature
G28 ; home all axes
G1 Z5 F5000 ; lift nozzle

M109 S200 ; wait for temperature to be reached
G21 ; set units to millimeters
G90 ; use absolute coordinates
M82 ; use absolute distances for extrusion
G92 E0
G1 Z0.350 F7800.000
G1 E-2.00000 F2400.00000
G92 E0
G1 X82.615 Y82.615 F7800.000
G1 E2.00000 F2400.00000
G1 X84.493 Y81.299 E2.07096 F1800.000
G1 X87.300 Y80.675 E2.15992
G1 X100.000 Y80.675 E2.55288
G1 X102.963 Y81.375 E2.64707
G1 X128.363 Y94.075 E3.52574 F1800.000
G1 X130.206 Y95.440 E3.59670
G1 X131.472 Y97.352 E3.66766
G1 X132.025 Y100.000 E3.75137
G1 X132.025 Y112.700 E4.14433
G1 X131.628 Y114.959 E4.21529
G1 X130.485 Y116.947 E4.28625
G1 X128.732 Y118.426 E4.35722
G1 X126.580 Y119.219 E4.42818
G1 X125.400 Y119.325 E4.46483
G1 X74.600 Y119.325 E6.03665
G1 X72.341 Y118.928 E6.10761
G1 X70.353 Y117.785 E6.17857
G1 X68.874 Y116.032 E6.24954
G1 X68.081 Y113.880 E6.32050
G1 X67.975 Y112.700 E6.35715
G1 X67.975 Y100.000 E6.75010
G1 X68.372 Y97.741 E6.82107
G1 X69.915 Y95.316 E6.91002
G1 X82.562 Y82.669 E7.46343
G1 E5.46343 F2400.00000
G92 E0
G1 X117.180 Y107.572 F7800.000
G1 E2.00000 F2400.00000
G1 X90.165 Y107.572 E2.83586 F1800.000
G1 X86.637 Y111.100 E2.99023
G1 X76.200 Y111.100 E3.31318
G1 X76.200 Y103.099 E3.56075
G1 X78.927 Y103.099 E3.64512
G1 X83.248 Y101.600 E3.78665
G1 X88.900 Y101.600 E3.96152
G1 X88.900 Y88.900 E4.35448
G1 X96.901 Y88.900 E4.60204
G1 X96.901 Y91.627 E4.68641
G1 X98.400 Y95.948 E4.82794
G1 X98.400 Y101.600 E5.00281
G1 X118.102 Y101.600 E5.61241
G1 X117.751 Y104.576 E5.70514
G1 X123.800 Y106.024 E5.89761
G1 X123.800 Y110.591 E6.03890
G1 X121.210 Y109.866 E6.12213
G1 X118.320 Y109.866 E6.21156
G1 X115.850 Y111.100 E6.29699
G1 X113.652 Y111.100 E6.36501
G1 X117.127 Y107.625 E6.51705
G1 X115.671 Y108.197 F7800.000
G1 X111.238 Y108.197 E6.65422 F1800.000
G1 X107.710 Y111.725 E6.80859
G1 X106.940 Y111.725 E6.83242
G1 X110.467 Y108.197 E6.98679
G1 X106.034 Y108.197 E7.12396
G1 X102.507 Y111.725 E7.27832
G1 X101.736 Y111.725 E7.30216
G1 X105.264 Y108.197 E7.45653
G1 X100.831 Y108.197 E7.59369
G1 X97.303 Y111.725 E7.74806
G1 X96.533 Y111.725 E7.77190
G1 X100.061 Y108.197 E7.92626
G1 X95.627 Y108.197 E8.06343
G1 X92.100 Y111.725 E8.21780
G1 X91.329 Y111.725 E8.24163
G1 X94.857 Y108.197 E8.39600
G1 X90.424 Y108.197 E8.53317
G1 X86.896 Y111.725 E8.68753
G1 X75.575 Y111.725 E9.03783
G1 X75.575 Y101.277 E9.36112
G1 X75.851 Y101.201 E9.36998
G1 X76.600 Y102.474 E9.41568
G1 X78.821 Y102.474 E9.48440
G1 X83.143 Y100.975 E9.62594
G1 X88.275 Y100.975 E9.78473
G1 X88.275 Y88.275 E10.17768
G1 X98.723 Y88.275 E10.50098
G1 X98.799 Y88.551 E10.50984
G1 X97.526 Y89.300 E10.55553
G1 X97.526 Y91.521 E10.62426
G1 X99.025 Y95.843 E10.76579
G1 X99.025 Y100.975 E10.92459
G1 X124.425 Y100.975 E11.71050
G1 X124.425 Y102.288 E11.75113
G1 X118.650 Y102.288 E11.92982
G1 X118.436 Y104.098 E11.98620
G1 X124.425 Y105.532 E12.17673
G1 X124.425 Y111.415 E12.35876
G1 X121.124 Y110.490 E12.46483
G1 X118.467 Y110.490 E12.54704
G1 X115.998 Y111.725 E12.63247
G1 X112.143 Y111.725 E12.75173
G1 X115.618 Y108.250 E12.90378
G1 X114.162 Y108.822 F7800.000
G1 X111.497 Y108.822 E12.98625 F1800.000
G1 X107.969 Y112.350 E13.14062
G1 X105.431 Y112.350 E13.21915
G1 X108.959 Y108.822 E13.37351
G1 X106.293 Y108.822 E13.45599
G1 X102.765 Y112.350 E13.61036
G1 X100.228 Y112.350 E13.68888
G1 X103.755 Y108.822 E13.84325
G1 X101.090 Y108.822 E13.92573
G1 X97.562 Y112.350 E14.08010
G1 X95.024 Y112.350 E14.15862
G1 X98.552 Y108.822 E14.31299
G1 X95.886 Y108.822 E14.39546
G1 X92.358 Y112.350 E14.54983
G1 X89.821 Y112.350 E14.62836
G1 X93.348 Y108.822 E14.78272
G1 X90.683 Y108.822 E14.86520
G1 X87.155 Y112.350 E15.01957
G1 X74.950 Y112.350 E15.39721
G1 X74.950 Y100.350 E15.76850
G1 X76.076 Y100.350 E15.80333
G1 X76.957 Y101.849 E15.85715
G1 X78.716 Y101.849 E15.91156
G1 X83.037 Y100.350 E16.05309
G1 X87.650 Y100.350 E16.19581
G1 X87.650 Y87.650 E16.58876
G1 X99.650 Y87.650 E16.96006
G1 X99.650 Y88.776 E16.99489
G1 X98.151 Y89.657 E17.04871
G1 X98.151 Y91.416 E17.10312
G1 X99.650 Y95.737 E17.24465
G1 X99.650 Y100.350 E17.38737
G1 X125.050 Y100.350 E18.17328
G1 X125.050 Y102.913 E18.25258
G1 X119.205 Y102.913 E18.43342
G1 X119.122 Y103.619 E18.45542
G1 X125.050 Y105.039 E18.64402
G1 X125.050 Y112.239 E18.86680
G1 X121.038 Y111.115 E18.99570
G1 X118.615 Y111.115 E19.07069
G1 X116.145 Y112.350 E19.15612
G1 X110.635 Y112.350 E19.32662
G1 X114.109 Y108.875 E19.47867
G1 X114.292 Y108.339 F7800.000
G1 X114.793 Y110.401 F7800.000
G1 X115.124 Y110.733 E19.49329 F1800.000
G1 X115.964 Y110.683 E19.51949
G1 X115.237 Y109.956 E19.55150
G1 X115.682 Y109.512 E19.57110
G1 X116.557 Y110.387 E19.60964
G1 X117.150 Y110.090 E19.63029
G1 X116.127 Y109.067 E19.67537
G1 X116.572 Y108.622 E19.69496
G1 X117.743 Y109.794 E19.74657
G1 X118.338 Y109.498 E19.76724
G1 X117.017 Y108.177 E19.82543
G1 X117.461 Y107.732 E19.84502
G1 X119.227 Y109.498 E19.92280
G1 X120.117 Y109.498 E19.95051
G1 X112.586 Y101.967 E20.28224
G1 X113.475 Y101.967 E20.30995
G1 X121.006 Y109.498 E20.64168
G1 X122.085 Y109.687 E20.67577
G1 X117.273 Y104.875 E20.88773
G1 X117.445 Y104.157 E20.91070
G1 X115.255 Y101.967 E21.00719
G1 X114.365 Y101.967 E21.03489
G1 X117.351 Y104.953 E21.16642
G1 X118.442 Y105.155 E21.20098
G1 X123.320 Y110.033 E21.41585
G1 X123.433 Y109.256 E21.44030
G1 X119.612 Y105.435 E21.60861
G1 X120.781 Y105.715 E21.64607
G1 X123.433 Y108.366 E21.76286
G1 X123.433 Y107.477 E21.79057
G1 X121.951 Y105.995 E21.85584
G1 X123.121 Y106.275 E21.89330
G1 X123.433 Y106.587 E21.90705
G1 X117.034 Y101.967 F7800.000
G1 X117.633 Y102.566 E21.93344 F1800.000
G1 X117.539 Y103.362 E21.95839
G1 X116.144 Y101.967 E22.01983
G1 X111.696 Y101.967 F7800.000
G1 X116.934 Y107.205 E22.25055 F1800.000
G1 X116.045 Y107.205 E22.27826
G1 X110.807 Y101.967 E22.50899
G1 X115.155 Y107.205 F7800.000
G1 X109.917 Y101.967 E22.73971 F1800.000
G1 X109.027 Y101.967 E22.76742
G1 X114.265 Y107.205 E22.99815
G1 X113.376 Y107.205 E23.02585
G1 X108.138 Y101.967 E23.25658
G1 X107.248 Y101.967 E23.28429
G1 X112.486 Y107.205 E23.51501
G1 X111.597 Y107.205 E23.54272
G1 X106.359 Y101.967 E23.77345
G1 X105.469 Y101.967 E23.80115
G1 X110.707 Y107.205 E24.03188
G1 X109.818 Y107.205 E24.05959
G1 X104.579 Y101.967 E24.29031
G1 X103.690 Y101.967 E24.31802
G1 X108.928 Y107.205 E24.54875
G1 X108.038 Y107.205 E24.57645
G1 X102.800 Y101.967 E24.80718
G1 X101.911 Y101.967 E24.83489
G1 X107.149 Y107.205 E25.06561
G1 X106.259 Y107.205 E25.09332
G1 X101.021 Y101.967 E25.32405
G1 X100.132 Y101.967 E25.35175
G1 X105.370 Y107.205 E25.58248
G1 X104.480 Y107.205 E25.61019
G1 X99.242 Y101.967 E25.84091
G1 X98.352 Y101.967 E25.86862
G1 X103.590 Y107.205 E26.09935
G1 X102.701 Y107.205 E26.12705
G1 X89.267 Y93.771 E26.71878
G1 X89.267 Y94.661 E26.74649
G1 X101.811 Y107.205 E27.29903
G1 X100.922 Y107.205 E27.32674
G1 X89.267 Y95.551 E27.84010
G1 X89.267 Y96.440 E27.86781
G1 X100.032 Y107.205 E28.34198
G1 X99.142 Y107.205 E28.36969
G1 X89.267 Y97.330 E28.80468
G1 X89.267 Y98.219 E28.83239
G1 X98.253 Y107.205 E29.22820
G1 X97.363 Y107.205 E29.25590
G1 X89.267 Y99.109 E29.61252
G1 X89.267 Y99.999 E29.64023
G1 X96.474 Y107.205 E29.95767
G1 X95.584 Y107.205 E29.98538
G1 X89.267 Y100.888 E30.26363
G1 X89.267 Y101.778 E30.29134
G1 X94.695 Y107.205 E30.53040
G1 X93.805 Y107.205 E30.55811
G1 X88.567 Y101.967 E30.78884
G1 X87.677 Y101.967 E30.81654
G1 X92.915 Y107.205 E31.04727
G1 X92.026 Y107.205 E31.07498
G1 X86.788 Y101.967 E31.30570
G1 X85.898 Y101.967 E31.33341
G1 X91.136 Y107.205 E31.56414
G1 X90.247 Y107.205 E31.59184
G1 X85.009 Y101.967 E31.82257
G1 X84.119 Y101.967 E31.85028
G1 X89.724 Y107.572 E32.09716
G1 X89.279 Y108.017 E32.11675
G1 X83.229 Y101.967 E32.38323
G1 X82.561 Y102.189 E32.40515
G1 X88.834 Y108.462 E32.68146
G1 X88.389 Y108.906 E32.70105
G1 X81.901 Y102.418 E32.98686
G1 X81.240 Y102.647 E33.00864
G1 X87.945 Y109.351 E33.30395
G1 X87.500 Y109.796 E33.32354
G1 X80.580 Y102.876 E33.62835
G1 X79.919 Y103.105 E33.65012
G1 X87.055 Y110.241 E33.96443
G1 X86.610 Y110.686 E33.98402
G1 X79.259 Y103.334 E34.30783
G1 X78.502 Y103.466 E34.33178
G1 X85.768 Y110.733 E34.65185
G1 X84.878 Y110.733 E34.67956
G1 X77.612 Y103.466 E34.99964
G1 X76.722 Y103.466 E35.02734
G1 X83.989 Y110.733 E35.34742
G1 X83.099 Y110.733 E35.37513
G1 X76.567 Y104.201 E35.66286
G1 X76.567 Y105.090 E35.69057
G1 X82.210 Y110.733 E35.93911
G1 X81.320 Y110.733 E35.96682
G1 X76.567 Y105.980 E36.17618
G1 X76.567 Y106.869 E36.20389
G1 X80.431 Y110.733 E36.37406
G1 X79.541 Y110.733 E36.40177
G1 X76.567 Y107.759 E36.53276
G1 X76.567 Y108.649 E36.56047
G1 X78.651 Y110.733 E36.65228
G1 X77.762 Y110.733 E36.67999
G1 X76.567 Y109.538 E36.73261
G1 X76.567 Y110.428 E36.76032
G1 X76.872 Y110.733 E36.77376
G1 E34.77376 F2400.00000
G92 E0
G1 X89.267 Y92.882 F7800.000
G1 E2.00000 F2400.00000
G1 X98.033 Y101.648 E2.38612 F1800.000
G1 X98.033 Y100.758 E2.41382
G1 X89.267 Y91.992 E2.79994
G1 X89.267 Y91.103 E2.82765
G1 X98.033 Y99.868 E3.21377
G1 X98.033 Y98.979 E3.24147
G1 X89.267 Y90.213 E3.62759
G1 X89.267 Y89.323 E3.65530
G1 X98.033 Y98.089 E4.04142
G1 X98.033 Y97.200 E4.06912
G1 X90.100 Y89.267 E4.41854
G1 X90.990 Y89.267 E4.44625
G1 X98.033 Y96.310 E4.75648
G1 X97.637 Y95.025 E4.79835
G1 X91.879 Y89.267 E5.05198
G1 X92.769 Y89.267 E5.07969
G1 X97.165 Y93.663 E5.27332
G1 X96.692 Y92.301 F7800.000
G1 X93.659 Y89.267 E5.40694 F1800.000
G1 X94.548 Y89.267 E5.43465
G1 X96.534 Y91.252 E5.52210
G1 X96.534 Y90.363 E5.54981
G1 X95.438 Y89.267 E5.59807
G1 E3.59807 F2400.00000
G92 E0
G1 X118.413 Y101.632 F7800.000
G1 E2.00000 F2400.00000
G1 X124.113 Y101.632 E2.07758 F1800.000
G1 Z0.650 F7800.000
G1 E0.07758 F2400.00000
G92 E0
G1 X116.817 Y107.723 F7800.000
G1 E2.00000 F2400.00000
G1 X90.227 Y107.723 E2.73860 F3600.000
G1 X86.700 Y111.250 E2.87718
G1 X76.050 Y111.250 E3.17302
G1 X76.050 Y102.949 E3.40362
G1 X78.901 Y102.949 E3.48283
G1 X83.223 Y101.450 E3.60989
G1 X88.750 Y101.450 E3.76341
G1 X88.750 Y88.750 E4.11619
G1 X97.051 Y88.750 E4.34679
G1 X97.051 Y91.601 E4.42600
G1 X98.550 Y95.923 E4.55307
G1 X98.550 Y101.450 E4.70659
G1 X118.271 Y101.450 E5.25438
G1 X117.916 Y104.461 E5.33861
G1 X123.950 Y105.906 E5.51099
G1 X123.950 Y110.789 E5.64662
G1 X121.189 Y110.016 E5.72627
G1 X118.355 Y110.016 E5.80500
G1 X115.886 Y111.250 E5.88169
G1 X113.289 Y111.250 E5.95382
G1 X116.764 Y107.776 E6.09032
G1 X115.237 Y108.377 F7800.000
G1 X111.312 Y108.377 E6.19933 F3600.000
G1 X107.785 Y111.905 E6.33792
G1 X106.506 Y111.905 E6.37344
G1 X110.033 Y108.377 E6.51203
G1 X106.109 Y108.377 E6.62104
G1 X102.581 Y111.905 E6.75962
G1 X101.302 Y111.905 E6.79515
G1 X104.830 Y108.377 E6.93374
G1 X100.905 Y108.377 E7.04275
G1 X97.378 Y111.905 E7.18133
G1 X96.099 Y111.905 E7.21686
G1 X99.626 Y108.377 E7.35545
G1 X95.702 Y108.377 E7.46446
G1 X92.174 Y111.905 E7.60304
G1 X90.895 Y111.905 E7.63857
G1 X94.423 Y108.377 E7.77716
G1 X90.498 Y108.377 E7.88617
G1 X86.971 Y111.905 E8.02475
G1 X75.395 Y111.905 E8.34630
G1 X75.395 Y100.795 E8.65491
G1 X75.821 Y100.795 E8.66674
G1 X76.703 Y102.294 E8.71505
G1 X78.791 Y102.294 E8.77306
G1 X83.112 Y100.795 E8.90012
G1 X88.095 Y100.795 E9.03852
G1 X88.095 Y88.095 E9.39130
G1 X99.205 Y88.095 E9.69991
G1 X99.205 Y88.521 E9.71174
G1 X97.706 Y89.403 E9.76006
G1 X97.706 Y91.491 E9.81806
G1 X99.205 Y95.812 E9.94512
G1 X99.205 Y100.795 E10.08353
G1 X124.605 Y100.795 E10.78908
G1 X124.605 Y102.468 E10.83556
G1 X118.810 Y102.468 E10.99653
G1 X118.634 Y103.960 E11.03826
G1 X124.605 Y105.390 E11.20881
G1 X124.605 Y111.652 E11.38276
G1 X121.099 Y110.670 E11.48388
G1 X118.510 Y110.670 E11.55582
G1 X116.040 Y111.905 E11.63251
G1 X111.709 Y111.905 E11.75282
G1 X115.184 Y108.430 E11.88932
G1 X113.921 Y108.922 F7800.000
G1 X111.538 Y108.922 E11.93338 F1800.000
G1 X108.010 Y112.450 E12.02561
G1 X105.190 Y112.450 E12.07776
G1 X108.717 Y108.922 E12.17000
G1 X106.335 Y108.922 E12.21406
G1 X102.807 Y112.450 E12.30629
G1 X99.986 Y112.450 E12.35844
G1 X103.514 Y108.922 E12.45068
G1 X101.131 Y108.922 E12.49474
G1 X97.603 Y112.450 E12.58698
G1 X94.783 Y112.450 E12.63912
G1 X98.310 Y108.922 E12.73136
G1 X95.928 Y108.922 E12.77542
G1 X92.400 Y112.450 E12.86766
G1 X89.579 Y112.450 E12.91980
G1 X93.107 Y108.922 E13.01204
G1 X90.724 Y108.922 E13.05610
G1 X87.196 Y112.450 E13.14834
G1 X74.850 Y112.450 E13.37660
G1 X74.850 Y100.250 E13.60216
G1 X76.133 Y100.250 E13.62587
G1 X77.015 Y101.749 E13.65803
G1 X78.699 Y101.749 E13.68917
G1 X83.021 Y100.250 E13.77374
G1 X87.550 Y100.250 E13.85748
G1 X87.550 Y87.550 E14.09228
G1 X99.750 Y87.550 E14.31784
G1 X99.750 Y88.833 E14.34156
G1 X98.251 Y89.715 E14.37372
G1 X98.251 Y91.399 E14.40486
G1 X99.750 Y95.721 E14.48943
G1 X99.750 Y100.250 E14.57317
G1 X125.150 Y100.250 E15.04277
G1 X125.150 Y103.013 E15.09386
G1 X119.294 Y103.013 E15.20212
G1 X119.232 Y103.543 E15.21198
G1 X125.150 Y104.960 E15.32449
G1 X125.150 Y112.370 E15.46150
G1 X121.025 Y111.215 E15.54070
G1 X118.638 Y111.215 E15.58482
G1 X116.169 Y112.450 E15.63587
G1 X110.393 Y112.450 E15.74265
G1 X113.868 Y108.975 E15.83350
G1 X114.050 Y108.439 F7800.000
G1 X118.579 Y101.632 F7800.000
G1 X124.278 Y101.632 E16.07873 F1200.000
G1 E14.07873 F2400.00000
G92 E0
G1 X123.249 Y110.223 F7800.000
G1 E2.00000 F2400.00000
G1 X123.563 Y109.909 E2.01239 F1200.000
G1 X123.563 Y108.979 E2.03836
G1 X122.522 Y110.020 E2.07944
G1 X121.795 Y109.816 E2.10050
G1 X123.563 Y108.049 E2.17027
G1 X123.563 Y107.119 E2.19624
G1 X121.053 Y109.628 E2.29529
G1 X120.123 Y109.628 E2.32126
G1 X123.548 Y106.203 E2.45644
G1 X122.817 Y106.004 E2.47759
G1 X119.193 Y109.628 E2.62065
G1 X118.263 Y109.628 E2.64662
G1 X122.067 Y105.824 E2.79677
G1 X121.316 Y105.645 E2.81831
G1 X116.574 Y110.387 E3.00553
G1 X115.168 Y110.863 F7800.000
G1 X120.566 Y105.465 E3.21861 F1200.000
G1 X119.815 Y105.285 E3.24015
G1 X117.766 Y107.335 E3.32107
G1 X116.835 Y107.335 E3.34703
G1 X119.065 Y105.106 E3.43504
G1 X118.314 Y104.926 E3.45658
G1 X115.905 Y107.335 E3.55168
G1 X114.975 Y107.335 E3.57765
G1 X117.564 Y104.746 E3.67984
G1 X117.586 Y103.793 E3.70645
G1 X114.045 Y107.335 E3.84626
G1 X113.115 Y107.335 E3.87222
G1 X117.711 Y102.739 E4.05367
G1 X117.682 Y101.837 E4.07884
G1 X112.185 Y107.335 E4.29587
G1 X111.254 Y107.335 E4.32183
G1 X116.752 Y101.837 E4.53886
G1 X115.822 Y101.837 E4.56483
G1 X110.324 Y107.335 E4.78185
G1 X109.394 Y107.335 E4.80782
G1 X114.892 Y101.837 E5.02485
G1 X113.961 Y101.837 E5.05081
G1 X108.464 Y107.335 E5.26784
G1 X107.534 Y107.335 E5.29380
G1 X113.031 Y101.837 E5.51083
G1 X112.101 Y101.837 E5.53680
G1 X106.604 Y107.335 E5.75382
G1 X105.673 Y107.335 E5.77979
G1 X111.171 Y101.837 E5.99681
G1 X110.241 Y101.837 E6.02278
G1 X104.743 Y107.335 E6.23981
G1 X103.813 Y107.335 E6.26577
G1 X109.311 Y101.837 E6.48280
G1 X108.380 Y101.837 E6.50876
G1 X102.883 Y107.335 E6.72579
G1 X101.953 Y107.335 E6.75176
G1 X107.450 Y101.837 E6.96878
G1 X106.520 Y101.837 E6.99475
G1 X101.023 Y107.335 E7.21178
G1 X100.092 Y107.335 E7.23774
G1 X105.590 Y101.837 E7.45477
G1 X104.660 Y101.837 E7.48073
G1 X99.162 Y107.335 E7.69776
G1 X98.232 Y107.335 E7.72373
G1 X103.730 Y101.837 E7.94075
G1 X102.800 Y101.837 E7.96672
G1 X97.302 Y107.335 E8.18375
G1 X96.372 Y107.335 E8.20971
G1 X101.869 Y101.837 E8.42674
G1 X100.939 Y101.837 E8.45270
G1 X95.442 Y107.335 E8.66973
G1 X94.512 Y107.335 E8.69570
G1 X100.009 Y101.837 E8.91272
G1 X99.079 Y101.837 E8.93869
G1 X93.581 Y107.335 E9.15571
G1 X92.651 Y107.335 E9.18168
G1 X98.163 Y101.823 E9.39926
G1 X98.163 Y100.893 E9.42522
G1 X91.721 Y107.335 E9.67952
G1 X90.791 Y107.335 E9.70548
G1 X98.163 Y99.963 E9.99650
G1 X98.163 Y99.033 E10.02247
G1 X86.333 Y110.863 E10.48947
G1 X85.403 Y110.863 E10.51544
G1 X98.163 Y98.103 E11.01916
G1 X98.163 Y97.173 E11.04513
G1 X84.473 Y110.863 E11.58557
G1 X83.542 Y110.863 E11.61154
G1 X98.163 Y96.242 E12.18870
